resources/images/compare.svg

<svg width="16" height="16" viewBox="0 0 16 16" fill="none" xmlns="http://www.w3.org/2000/svg">
<path d="M7.87009 2.23001C6.33009 0.690012 3.83009 0.690012 2.28009 2.23001C0.730091 3.77001 0.740091 6.27001 2.28009 7.82001C3.71009 9.25001 5.97009 9.35001 7.52009 8.13001L8.85009 9.46001C8.85009 9.46001 8.52009 9.79001 8.85009 10.12C9.18009 10.45 12.1401 13.41 12.1401 13.41C12.1401 13.41 12.4701 13.74 12.8001 13.41C13.1301 13.08 13.4601 12.75 13.4601 12.75C13.4601 12.75 13.7901 12.42 13.4601 12.09C13.1301 11.76 10.1701 8.80001 10.1701 8.80001C9.84009 8.47001 9.51009 8.80001 9.51009 8.80001L8.18009 7.47001C9.41009 5.92001 9.30009 3.67001 7.87009 2.23001ZM7.52009 7.47001C6.17009 8.82001 3.98009 8.82001 2.63009 7.47001C1.28009 6.12001 1.28009 3.93001 2.63009 2.58001C3.98009 1.23001 6.17009 1.23001 7.52009 2.58001C8.87009 3.93001 8.87009 6.12001 7.52009 7.47001Z" fill="#73CA94"/>
<path d="M7.49016 4.34999C7.43016 4.15999 7.36016 3.96999 7.26016 3.79999L7.44016 3.25999L6.85016 2.66999L6.31016 2.84999C6.14016 2.74999 5.95016 2.67999 5.75016 2.61999L5.50016 2.10999H4.66016L4.41016 2.61999C4.21016 2.66999 4.03016 2.74999 3.85016 2.84999L3.31016 2.66999L2.72016 3.25999L2.90016 3.79999C2.80016 3.96999 2.72016 4.15999 2.67016 4.34999L2.16016 4.60999V5.43999L2.67016 5.69999C2.72016 5.89999 2.80016 6.07999 2.90016 6.25999L2.72016 6.79999L3.31016 7.38999L3.85016 7.20999C4.02016 7.30999 4.21016 7.37999 4.41016 7.43999L4.67016 7.94999H5.50016L5.76016 7.43999C5.96016 7.38999 6.14016 7.30999 6.32016 7.20999L6.86016 7.38999L7.44016 6.79999L7.26016 6.25999C7.36016 6.07999 7.43016 5.89999 7.49016 5.69999L8.00016 5.44999V4.60999L7.49016 4.34999ZM5.08016 6.32999C4.36016 6.32999 3.78016 5.74999 3.78016 5.02999C3.78016 4.30999 4.36016 3.72999 5.08016 3.72999C5.80016 3.72999 6.38016 4.30999 6.38016 5.02999C6.38016 5.74999 5.80016 6.32999 5.08016 6.32999Z" fill="#73CA94"/>
<path d="M14.56 4.45001C14.51 4.28001 14.45 4.12001 14.36 3.97001L14.51 3.51001L14 3.00001L13.54 3.15001C13.39 3.07001 13.23 3.00001 13.06 2.95001L12.84 2.51001H12.13L11.91 2.95001C11.74 3.00001 11.58 3.06001 11.43 3.15001L10.97 3.00001L10.46 3.51001L10.61 3.97001C10.53 4.12001 10.46 4.28001 10.41 4.45001L10 4.67001V5.38001L10.44 5.60001C10.49 5.77001 10.55 5.93001 10.64 6.08001L10.49 6.54001L11 7.05001L11.46 6.90001C11.61 6.98001 11.77 7.05001 11.94 7.10001L12.16 7.54001H12.87L13.09 7.10001C13.26 7.05001 13.42 6.99001 13.57 6.90001L14.03 7.05001L14.54 6.54001L14.39 6.08001C14.47 5.93001 14.54 5.77001 14.59 5.60001L15 5.39001V4.67001L14.56 4.45001ZM12.5 6.14001C11.88 6.14001 11.39 5.64001 11.39 5.03001C11.39 4.41001 11.89 3.92001 12.5 3.92001C13.11 3.92001 13.61 4.42001 13.61 5.03001C13.61 5.64001 13.11 6.14001 12.5 6.14001Z" fill="#73CA94"/>
<path d="M7.14006 11.91C7.09006 11.74 7.03006 11.58 6.94006 11.43L7.09006 10.97L6.58006 10.46L6.12006 10.61C5.97006 10.53 5.81006 10.46 5.64006 10.41L5.44006 9.98999H4.72006L4.50006 10.43C4.33006 10.48 4.17006 10.54 4.02006 10.63L3.56006 10.48L3.05006 10.99L3.20006 11.45C3.12006 11.6 3.05006 11.76 3.00006 11.93L2.56006 12.15V12.86L3.00006 13.08C3.05006 13.25 3.11006 13.41 3.20006 13.56L3.06006 14L3.57006 14.51L4.03006 14.36C4.18006 14.44 4.34006 14.51 4.51006 14.56L4.73006 15H5.44006L5.66006 14.56C5.83006 14.51 5.99006 14.45 6.14006 14.36L6.60006 14.51L7.10006 14L6.95006 13.54C7.03006 13.39 7.10006 13.23 7.15006 13.06L7.59006 12.84V12.13L7.14006 11.91ZM5.08006 13.6C4.46006 13.6 3.97006 13.1 3.97006 12.49C3.97006 11.87 4.47006 11.38 5.08006 11.38C5.69006 11.38 6.19006 11.88 6.19006 12.49C6.19006 13.11 5.69006 13.6 5.08006 13.6Z" fill="#73CA94"/>
</svg>

<?xml version="1.0" encoding="utf-8"?>
<!-- Generator: Adobe Illustrator 25.0.1, SVG Export Plug-In . SVG Version: 6.00 Build 0)  -->
<svg version="1.0" id="Layer_1" xmlns="http://www.w3.org/2000/svg" xmlns:xlink="http://www.w3.org/1999/xlink" x="0px" y="0px"
	 viewBox="0 0 16 16" enable-background="new 0 0 16 16" xml:space="preserve">
<g id="compare_1_">
	<g id="compare">
		<path fill="#ED6B21" d="M7.87,2.23c-1.54-1.54-4.04-1.54-5.59,0s-1.54,4.04,0,5.59c1.43,1.43,3.69,1.53,5.24,0.31l1.33,1.33
			c0,0-0.33,0.33,0,0.66c0.33,0.33,3.29,3.29,3.29,3.29s0.33,0.33,0.66,0c0.33-0.33,0.66-0.66,0.66-0.66s0.33-0.33,0-0.66
			c-0.33-0.33-3.29-3.29-3.29-3.29c-0.33-0.33-0.66,0-0.66,0L8.18,7.47C9.41,5.92,9.3,3.67,7.87,2.23z M7.52,7.47
			c-1.35,1.35-3.54,1.35-4.89,0s-1.35-3.54,0-4.89s3.54-1.35,4.89,0S8.87,6.12,7.52,7.47z"/>
	</g>
	<path fill="#808080" d="M7.49,4.35C7.43,4.16,7.36,3.97,7.26,3.8l0.18-0.54L6.85,2.67L6.31,2.85c-0.17-0.1-0.36-0.17-0.56-0.23
		L5.5,2.11H4.66L4.41,2.62c-0.2,0.05-0.38,0.13-0.56,0.23L3.31,2.67L2.72,3.26L2.9,3.8C2.8,3.97,2.72,4.16,2.67,4.35L2.16,4.61v0.83
		L2.67,5.7C2.72,5.9,2.8,6.08,2.9,6.26L2.72,6.8l0.59,0.59l0.54-0.18c0.17,0.1,0.36,0.17,0.56,0.23l0.26,0.51H5.5l0.26-0.51
		c0.2-0.05,0.38-0.13,0.56-0.23l0.54,0.18L7.44,6.8L7.26,6.26C7.36,6.08,7.43,5.9,7.49,5.7L8,5.45V4.61L7.49,4.35z M5.08,6.33
		c-0.72,0-1.3-0.58-1.3-1.3c0-0.72,0.58-1.3,1.3-1.3s1.3,0.58,1.3,1.3C6.38,5.75,5.8,6.33,5.08,6.33z"/>
	<path fill="#808080" d="M14.56,4.45c-0.05-0.17-0.11-0.33-0.2-0.48l0.15-0.46l-0.51-0.51l-0.46,0.15c-0.15-0.08-0.31-0.15-0.48-0.2
		l-0.22-0.44h-0.71l-0.22,0.44c-0.17,0.05-0.33,0.11-0.48,0.2l-0.46-0.15l-0.51,0.51l0.15,0.46c-0.08,0.15-0.15,0.31-0.2,0.48
		L10,4.67v0.71l0.44,0.22c0.05,0.17,0.11,0.33,0.2,0.48l-0.15,0.46l0.51,0.51l0.46-0.15c0.15,0.08,0.31,0.15,0.48,0.2l0.22,0.44
		h0.71l0.22-0.44c0.17-0.05,0.33-0.11,0.48-0.2l0.46,0.15l0.51-0.51l-0.15-0.46c0.08-0.15,0.15-0.31,0.2-0.48L15,5.39V4.67
		L14.56,4.45z M12.5,6.14c-0.62,0-1.11-0.5-1.11-1.11c0-0.62,0.5-1.11,1.11-1.11s1.11,0.5,1.11,1.11
		C13.61,5.64,13.11,6.14,12.5,6.14z"/>
	<path fill="#808080" d="M7.14,11.91c-0.05-0.17-0.11-0.33-0.2-0.48l0.15-0.46l-0.51-0.51l-0.46,0.15c-0.15-0.08-0.31-0.15-0.48-0.2
		L5.44,9.99H4.72L4.5,10.43c-0.17,0.05-0.33,0.11-0.48,0.2l-0.46-0.15l-0.51,0.51l0.15,0.46c-0.08,0.15-0.15,0.31-0.2,0.48
		l-0.44,0.22v0.71l0.44,0.22c0.05,0.17,0.11,0.33,0.2,0.48L3.06,14l0.51,0.51l0.46-0.15c0.15,0.08,0.31,0.15,0.48,0.2l0.22,0.44
		h0.71l0.22-0.44c0.17-0.05,0.33-0.11,0.48-0.2l0.46,0.15L7.1,14l-0.15-0.46c0.08-0.15,0.15-0.31,0.2-0.48l0.44-0.22v-0.71
		L7.14,11.91z M5.08,13.6c-0.62,0-1.11-0.5-1.11-1.11c0-0.62,0.5-1.11,1.11-1.11s1.11,0.5,1.11,1.11C6.19,13.11,5.69,13.6,5.08,13.6
		z"/>
</g>
</svg>
